img/benefits/bicycle.svg

<svg width="80" height="80" fill="none" xmlns="http://www.w3.org/2000/svg"><defs><clipPath id="a"><path fill="#fff" fill-opacity="0" d="M0 0h80v80H0z"/></clipPath></defs><path fill="none" d="M0 0h80v80H0z"/><g clip-path="url(#a)" fill="#D4C17F"><path d="M20 68H1.33C.59 68 0 68.59 0 69.33c0 .74.59 1.33 1.33 1.33H20A1.33 1.33 0 1 0 20 68ZM16 65.33c8.82 0 16-7.18 16-16 0-4.42-1.77-8.53-4.96-11.59a1.35 1.35 0 0 0-1.89.05c-.51.53-.49 1.38.04 1.88 2.67 2.55 4.14 5.97 4.14 9.66 0 7.35-5.98 13.33-13.33 13.33-7.36 0-13.34-5.98-13.34-13.33 0-7.36 5.98-13.34 13.34-13.34a1.33 1.33 0 1 0 0-2.66c-8.83 0-16 7.17-16 16 0 8.82 7.17 16 16 16Z"/><path d="M22.66 27.99h.68l-7.7 18.71a2.656 2.656 0 0 0 .36 5.29c1.47 0 2.66-1.19 2.66-2.66 0-.61-.21-1.17-.56-1.62l7.53-18.27 8.43 12.25c.42.61 1.25.76 1.86.35.61-.42.76-1.25.34-1.86l-8.4-12.19h2.8a3.999 3.999 0 1 0 0-8h-8c-.74 0-1.33.6-1.33 1.34v5.33c0 .74.59 1.33 1.33 1.33ZM24 22.66h6.66c.74 0 1.34.6 1.34 1.33 0 .74-.6 1.34-1.34 1.34H24v-2.67ZM62.66 34.66c0 .74.6 1.33 1.34 1.33 7.35 0 13.33 5.98 13.33 13.34 0 7.35-5.98 13.33-13.33 13.33-7.36 0-13.34-5.98-13.34-13.33 0-4 1.77-7.75 4.86-10.3.57-.46.65-1.3.18-1.87-.47-.57-1.31-.65-1.88-.18-3.7 3.05-5.82 7.55-5.82 12.35 0 8.82 7.17 16 16 16 8.82 0 16-7.18 16-16 0-8.83-7.18-16-16-16-.74 0-1.34.59-1.34 1.33ZM41.33 68H28c-.74 0-1.34.59-1.34 1.33 0 .74.6 1.33 1.34 1.33h13.33c.74 0 1.33-.59 1.33-1.33 0-.74-.59-1.33-1.33-1.33Z"/><path d="M41.33 42.85v-4.19c.74 0 1.33-.6 1.33-1.33 0-.74-.59-1.34-1.33-1.34h-2.67c-.74 0-1.33.6-1.33 1.34 0 .73.59 1.33 1.33 1.33v4.19c-2.29.6-4 2.66-4 5.14 0 2.48 1.71 4.55 4 5.15v4.19c-.74 0-1.33.59-1.33 1.33 0 .74.59 1.33 1.33 1.33h2.67c.74 0 1.33-.59 1.33-1.33 0-.74-.59-1.33-1.33-1.33v-4.19c2.29-.6 4-2.67 4-5.15 0-2.48-1.71-4.54-4-5.14Zm-1.34 7.81c-1.46 0-2.66-1.2-2.66-2.67a2.665 2.665 0 1 1 2.66 2.67ZM61.94 47.65c-.38.46-.61 1.04-.61 1.68a2.665 2.665 0 0 0 5.33 0c0-1.32-.97-2.41-2.22-2.63l-6.02-16.04h9.52c1.59 0 2.52-1.28 2.7-2.41l1.33-6.66c.08-.39-.02-.8-.28-1.11-.25-.31-.63-.49-1.03-.49h-12c-.74 0-1.33.6-1.33 1.34 0 .73.59 1.33 1.33 1.33h10.38l-1.02 5.1c-.02.09-.08.22-.08.23H57.42l-4.18-11.13v-.01c-.01-.01 0-.02-.01-.02l-2.66-6.67a1.35 1.35 0 0 0-1.74-.74c-.68.27-1.01 1.05-.74 1.73l2.43 6.07L45.5 26c-.36.64-.14 1.45.5 1.82.21.12.44.17.66.17.46 0 .91-.24 1.16-.67l3.92-6.87 3.21 8.56-10.16 11.43c-.49.55-.44 1.39.11 1.88.25.23.57.34.89.34.36 0 .73-.15.99-.45l9.23-10.38 5.93 15.82ZM78.66 68H57.33c-.74 0-1.33.59-1.33 1.33 0 .74.59 1.33 1.33 1.33h21.33c.74 0 1.33-.59 1.33-1.33.01-.74-.59-1.33-1.33-1.33ZM52 68h-2.67c-.74 0-1.33.59-1.33 1.33 0 .74.59 1.33 1.33 1.33H52A1.33 1.33 0 1 0 52 68Z"/></g></svg>

<svg width="80.000000" height="80.000000" viewBox="0 0 80 80" fill="none" xmlns="http://www.w3.org/2000/svg" xmlns:xlink="http://www.w3.org/1999/xlink">
	<desc>
			Created with Pixso.
	</desc>
	<defs>
		<clipPath id="clip5_62">
			<rect width="80.000000" height="80.000000" fill="white" fill-opacity="0"/>
		</clipPath>
	</defs>
	<rect width="80.000000" height="80.000000" fill="#FFFFFF" fill-opacity="0"/>
	<g clip-path="url(#clip5_62)">
		<path d="M20 68L1.33 68C0.59 68 0 68.59 0 69.33C0 70.07 0.59 70.66 1.33 70.66L20 70.66C20.73 70.66 21.33 70.07 21.33 69.33C21.33 68.59 20.73 68 20 68Z" fill="#D4C17F" fill-opacity="1.000000" fill-rule="nonzero"/>
		<path d="M16 65.33C24.82 65.33 32 58.15 32 49.33C32 44.91 30.23 40.8 27.04 37.74C26.5 37.24 25.66 37.26 25.15 37.79C24.64 38.32 24.66 39.17 25.19 39.67C27.86 42.22 29.33 45.64 29.33 49.33C29.33 56.68 23.35 62.66 16 62.66C8.64 62.66 2.66 56.68 2.66 49.33C2.66 41.97 8.64 35.99 16 35.99C16.73 35.99 17.33 35.4 17.33 34.66C17.33 33.92 16.73 33.33 16 33.33C7.17 33.33 0 40.5 0 49.33C9.15e-5 58.15 7.17 65.33 16 65.33Z" fill="#D4C17F" fill-opacity="1.000000" fill-rule="nonzero"/>
		<path d="M22.66 27.99L23.34 27.99L15.64 46.7C14.34 46.87 13.33 47.98 13.33 49.33C13.33 50.8 14.52 51.99 16 51.99C17.47 51.99 18.66 50.8 18.66 49.33C18.66 48.72 18.45 48.16 18.1 47.71L25.63 29.44L34.06 41.69C34.48 42.3 35.31 42.45 35.92 42.04C36.53 41.62 36.68 40.79 36.26 40.18L27.86 27.99L30.66 27.99C32.87 27.99 34.66 26.2 34.66 23.99C34.66 21.79 32.87 19.99 30.66 19.99L22.66 19.99C21.92 19.99 21.33 20.59 21.33 21.33L21.33 26.66C21.33 27.4 21.92 27.99 22.66 27.99ZM24 22.66L30.66 22.66C31.4 22.66 32 23.26 32 23.99C32 24.73 31.4 25.33 30.66 25.33L24 25.33L24 22.66Z" fill="#D4C17F" fill-opacity="1.000000" fill-rule="nonzero"/>
		<path d="M62.66 34.66C62.66 35.4 63.26 35.99 64 35.99C71.35 35.99 77.33 41.97 77.33 49.33C77.33 56.68 71.35 62.66 64 62.66C56.64 62.66 50.66 56.68 50.66 49.33C50.66 45.33 52.43 41.58 55.52 39.03C56.09 38.57 56.17 37.73 55.7 37.16C55.23 36.59 54.39 36.51 53.82 36.98C50.12 40.03 48 44.53 48 49.33C48 58.15 55.17 65.33 64 65.33C72.82 65.33 80 58.15 80 49.33C80 40.5 72.82 33.33 64 33.33C63.26 33.33 62.66 33.92 62.66 34.66Z" fill="#D4C17F" fill-opacity="1.000000" fill-rule="nonzero"/>
		<path d="M41.33 68L28 68C27.26 68 26.66 68.59 26.66 69.33C26.66 70.07 27.26 70.66 28 70.66L41.33 70.66C42.07 70.66 42.66 70.07 42.66 69.33C42.66 68.59 42.07 68 41.33 68Z" fill="#D4C17F" fill-opacity="1.000000" fill-rule="nonzero"/>
		<path d="M41.33 42.85L41.33 38.66C42.07 38.66 42.66 38.06 42.66 37.33C42.66 36.59 42.07 35.99 41.33 35.99L38.66 35.99C37.92 35.99 37.33 36.59 37.33 37.33C37.33 38.06 37.92 38.66 38.66 38.66L38.66 42.85C36.37 43.45 34.66 45.51 34.66 47.99C34.66 50.47 36.37 52.54 38.66 53.14L38.66 57.33C37.92 57.33 37.33 57.92 37.33 58.66C37.33 59.4 37.92 59.99 38.66 59.99L41.33 59.99C42.07 59.99 42.66 59.4 42.66 58.66C42.66 57.92 42.07 57.33 41.33 57.33L41.33 53.14C43.62 52.54 45.33 50.47 45.33 47.99C45.33 45.51 43.62 43.45 41.33 42.85ZM39.99 50.66C38.53 50.66 37.33 49.46 37.33 47.99C37.33 46.52 38.53 45.33 39.99 45.33C41.47 45.33 42.66 46.52 42.66 47.99C42.66 49.46 41.47 50.66 39.99 50.66Z" fill="#D4C17F" fill-opacity="1.000000" fill-rule="nonzero"/>
		<path d="M61.94 47.65C61.56 48.11 61.33 48.69 61.33 49.33C61.33 50.8 62.53 51.99 64 51.99C65.46 51.99 66.66 50.8 66.66 49.33C66.66 48.01 65.69 46.92 64.44 46.7L58.42 30.66L67.94 30.66C69.53 30.66 70.46 29.38 70.64 28.25L71.97 21.59C72.05 21.2 71.95 20.79 71.69 20.48C71.44 20.17 71.06 19.99 70.66 19.99L58.66 19.99C57.92 19.99 57.33 20.59 57.33 21.33C57.33 22.06 57.92 22.66 58.66 22.66L69.04 22.66L68.02 27.76C68 27.85 67.94 27.98 67.94 27.99L57.42 27.99L53.24 16.86C53.24 16.85 53.24 16.85 53.24 16.85C53.23 16.84 53.24 16.83 53.23 16.83L50.57 10.16C50.29 9.48 49.51 9.15 48.83 9.42C48.15 9.69 47.82 10.47 48.09 11.15L50.52 17.22L45.5 26C45.14 26.64 45.36 27.45 46 27.82C46.21 27.94 46.44 27.99 46.66 27.99C47.12 27.99 47.57 27.75 47.82 27.32L51.74 20.45L54.95 29.01L44.79 40.44C44.3 40.99 44.35 41.83 44.9 42.32C45.15 42.55 45.47 42.66 45.79 42.66C46.15 42.66 46.52 42.51 46.78 42.21L56.01 31.83L61.94 47.65Z" fill="#D4C17F" fill-opacity="1.000000" fill-rule="nonzero"/>
		<path d="M78.66 68L57.33 68C56.59 68 56 68.59 56 69.33C56 70.07 56.59 70.66 57.33 70.66L78.66 70.66C79.4 70.66 79.99 70.07 79.99 69.33C80 68.59 79.4 68 78.66 68Z" fill="#D4C17F" fill-opacity="1.000000" fill-rule="nonzero"/>
		<path d="M52 68L49.33 68C48.59 68 48 68.59 48 69.33C48 70.07 48.59 70.66 49.33 70.66L52 70.66C52.73 70.66 53.33 70.07 53.33 69.33C53.33 68.59 52.73 68 52 68Z" fill="#D4C17F" fill-opacity="1.000000" fill-rule="nonzero"/>
	</g>
</svg>
